SVG Logos/APIs/graphql-modules.svg

<?xml version="1.0" encoding="UTF-8"?>
<svg width="215px" height="105px" viewBox="0 0 215 105" version="1.1" xmlns="http://www.w3.org/2000/svg" xmlns:xlink="http://www.w3.org/1999/xlink">
    <title>GraphQL Tools/ modules</title>
    <g id="GraphQL-Tools/-modules" stroke="none" stroke-width="1" fill="none" fill-rule="evenodd">
        <rect id="Rectangle" fill="#FFFFFF" x="0" y="0" width="215" height="105"></rect>
        <g id="Libraries-Logos-/-MODULES" transform="translate(6.000000, 20.000000)">
            <path d="M36.0400049,60.3145407 C36.0400049,60.5683309 36.0151531,60.8160963 35.9767457,61.0593432 C35.9722272,61.0902198 35.9684617,61.1203432 35.9631901,61.1504667 C35.5655605,63.4345778 33.5736469,65.1772198 31.178079,65.1772198 C29.0415728,65.1772198 27.2273877,63.7900346 26.5759679,61.8711704 L6.34580741,50.1923062 C4.33958519,49.0340593 3.10452346,46.8930346 3.10452346,44.5780469 L3.10452346,24.9066765 C3.85384444,25.1604667 4.65286914,25.3043062 5.48804198,25.3043062 C6.23736296,25.3043062 6.96032593,25.1905901 7.64262222,24.9842444 L7.64262222,44.5780469 C7.64262222,45.2701333 8.01464691,45.9147753 8.61560988,46.2611951 L27.4872025,57.1568494 C28.3796099,56.1153309 29.7012765,55.4518617 31.178079,55.4518617 C32.7844123,55.4518617 34.2062395,56.2373309 35.0926222,57.441516 C35.108437,57.4633556 35.1250049,57.484442 35.1408198,57.5062815 C35.2025728,57.5943926 35.2613136,57.6840099 35.3177951,57.7766395 C35.3396346,57.8120346 35.3614741,57.8466765 35.3825605,57.8828247 C35.4322642,57.9679235 35.4782025,58.0552815 35.5226346,58.1433926 C35.5467333,58.190837 35.5693259,58.2382815 35.5911654,58.286479 C35.6295728,58.3685654 35.6649679,58.4514049 35.6988568,58.5357506 C35.7229556,58.5959975 35.744042,58.6562444 35.7658815,58.7172444 C35.7929926,58.7940593 35.8193506,58.8716272 35.8419432,58.9499481 C35.8645358,59.0252568 35.8811037,59.1005654 35.8999309,59.175121 C35.9172519,59.2459111 35.9353259,59.3159481 35.9488815,59.3874914 C35.9677086,59.4816272 35.979758,59.576516 35.9933136,59.672158 C36.0000914,59.7301457 36.0113877,59.785121 36.0166593,59.8423556 C36.0309679,59.9982444 36.0400049,60.1548864 36.0400049,60.3145407 L36.0400049,60.3145407 Z M60.919721,17.8487506 C60.919721,19.307479 60.2720667,20.614837 59.2508815,21.5064914 L59.2508815,44.5780469 C59.2508815,46.8930346 58.0165728,49.0340593 56.0095975,50.1923062 L38.629116,60.2264296 C38.6095358,58.5847012 38.0545111,57.0732568 37.1342395,55.8487383 L53.7405481,46.2611951 C54.340758,45.9147753 54.7127827,45.2701333 54.7127827,44.5780469 L54.7127827,22.5178864 C52.684721,21.9334914 51.195116,20.0635778 51.195116,17.8487506 C51.195116,16.7703309 51.5528321,15.7762568 52.1492765,14.9697012 C52.1575605,14.9568988 52.1673506,14.9440963 52.1771407,14.9312938 C52.2893506,14.7821827 52.4098444,14.6383432 52.5386222,14.5027877 L52.5559432,14.4839605 C52.8225358,14.2060716 53.120758,13.9620716 53.4460914,13.7534667 C53.4799802,13.7316272 53.5153753,13.7120469 53.5500173,13.6902074 C53.6787951,13.6133926 53.8105852,13.5403432 53.9461407,13.4748247 C53.9860543,13.4559975 54.0259679,13.4356642 54.0666346,13.4175901 C54.236079,13.3407753 54.4107951,13.2699852 54.5907827,13.2142568 C54.5915358,13.2142568 54.5915358,13.2142568 54.5915358,13.2135037 C55.054684,13.0666519 55.5464494,12.9860716 56.0577951,12.9860716 C58.7395358,12.9860716 60.919721,15.1670099 60.919721,17.8487506 L60.919721,17.8487506 Z M3.10452346,22.0826025 C1.6269679,21.2474296 0.625362963,19.6636889 0.625362963,17.8487506 C0.625362963,15.1670099 2.80630123,12.9860716 5.48804198,12.9860716 C6.18314074,12.9860716 6.84284444,13.1359358 7.44154815,13.399516 L27.936042,1.56702222 C28.9384,0.987898765 30.0589926,0.69871358 31.1773259,0.69871358 C32.2971654,0.69871358 33.4170049,0.987898765 34.419363,1.56702222 L51.9022642,11.6613926 C50.6159926,12.5289481 49.6196593,13.7896148 49.0729185,15.2664173 L32.1503136,5.49738025 C31.8551037,5.32642963 31.5184741,5.23681235 31.1773259,5.23681235 C30.8369309,5.23681235 30.5010543,5.32642963 30.2050914,5.49738025 L10.2724,17.0060469 C10.3205975,17.2801704 10.3499679,17.5603185 10.3499679,17.8487506 C10.3499679,19.9408247 9.0192642,21.7233802 7.16215309,22.4079358 C7.14784444,22.4132074 7.13278272,22.4192321 7.11922716,22.4237506 C6.97086914,22.4757136 6.82251111,22.5216519 6.66963457,22.5600593 C6.63875802,22.5675901 6.60863457,22.5766272 6.57775802,22.5826519 C6.43768395,22.6150346 6.29459753,22.6406395 6.15075802,22.6609728 C6.11159753,22.6662444 6.07319012,22.6737753 6.03327654,22.6782938 C5.85404198,22.6986272 5.67254815,22.7114296 5.48804198,22.7114296 C5.28998025,22.7114296 5.09493086,22.6956148 4.90214074,22.6722691 C4.85093086,22.6662444 4.80047407,22.6572074 4.74851111,22.6489235 C4.60090617,22.6263309 4.45631358,22.5977136 4.31247407,22.5615654 C4.26879506,22.5502691 4.22436296,22.540479 4.17993086,22.5276765 C3.8011284,22.4207383 3.4404,22.2723802 3.10452346,22.0826025 L3.10452346,22.0826025 Z" id="Fill-2" fill="#E535AB"></path>
            <g id="Group" stroke-width="1" transform="translate(12.304928, 12.304821)">
                <path d="M20.041864,34.7194309 L20.041864,19.3323269 L32.548533,13.952394 L32.548533,28.6767592 L29.5808955,27.3577073 C29.2008764,27.1897278 28.7547669,27.360461 28.5867874,27.7404802 C28.41789,28.1214172 28.5895412,28.5656908 28.9695603,28.7355062 L31.4204085,29.825078 L20.041864,34.7194309 Z M9.98971493,27.7404802 C9.82081753,27.360461 9.37562601,27.1897278 8.99560686,27.3577073 L6.02705146,28.6767592 L6.02705146,13.952394 L18.5346383,19.3323269 L18.5346383,34.7194309 L7.15517594,29.825078 L9.60785994,28.7355062 C9.98787909,28.5656908 10.1586123,28.1214172 9.98971493,27.7404802 L9.98971493,27.7404802 Z M18.5346383,7.92532695 L18.5346383,9.79513133 C18.5346383,10.2109494 18.8724331,10.5478263 19.2882512,10.5478263 C19.7040692,10.5478263 20.041864,10.2109494 20.041864,9.79513133 L20.041864,7.92532695 L31.3947067,12.8086648 L19.2882512,18.0160287 L7.18087772,12.8086648 L18.5346383,7.92532695 Z M38.1285727,31.1560629 L34.0557587,29.3459234 L34.0557587,12.8086648 C34.0557587,12.5103406 33.8767642,12.2340465 33.5931267,12.1137989 L20.041864,6.28500274 L20.041864,0.753612859 C20.041864,0.336876881 19.7040692,-2.1246621e-15 19.2882512,-2.1246621e-15 C18.8724331,-2.1246621e-15 18.5346383,0.336876881 18.5346383,0.753612859 L18.5346383,6.28500274 L4.98429359,12.1137989 C4.71442492,12.2248673 4.52166158,12.4984077 4.52166158,12.8086648 L4.52166158,29.3459234 L0.447011784,31.1560629 C0.0669926317,31.3249603 -0.10374061,31.7701518 0.0651567904,32.1510889 C0.233136271,32.5283543 0.676491948,32.7036772 1.05926486,32.5329439 L5.27894612,30.6585499 L18.989927,36.5552722 C19.1725932,36.6332955 19.3938121,36.6378851 19.5856575,36.5552722 L33.2966383,30.6585499 L37.5163196,32.5329439 C37.9009283,32.7036772 38.3433661,32.5274364 38.5113456,32.1510889 C38.680243,31.7701518 38.5085918,31.3249603 38.1285727,31.1560629 L38.1285727,31.1560629 Z" id="Fill-1" fill="#E535AB"></path>
                <path d="M20.041864,34.7194309 L20.041864,19.3323269 L32.548533,13.952394 L32.548533,28.6767592 L29.5808955,27.3577073 C29.2008764,27.1897278 28.7547669,27.360461 28.5867874,27.7404802 C28.41789,28.1214172 28.5895412,28.5656908 28.9695603,28.7355062 L31.4204085,29.825078 L20.041864,34.7194309 Z M9.98971493,27.7404802 C9.82081753,27.360461 9.37562601,27.1897278 8.99560686,27.3577073 L6.02705146,28.6767592 L6.02705146,13.952394 L18.5346383,19.3323269 L18.5346383,34.7194309 L7.15517594,29.825078 L9.60785994,28.7355062 C9.98787909,28.5656908 10.1586123,28.1214172 9.98971493,27.7404802 Z M18.5346383,7.92532695 L18.5346383,9.79513133 C18.5346383,10.2109494 18.8724331,10.5478263 19.2882512,10.5478263 C19.7040692,10.5478263 20.041864,10.2109494 20.041864,9.79513133 L20.041864,7.92532695 L31.3947067,12.8086648 L19.2882512,18.0160287 L7.18087772,12.8086648 L18.5346383,7.92532695 Z M38.1285727,31.1560629 L34.0557587,29.3459234 L34.0557587,12.8086648 C34.0557587,12.5103406 33.8767642,12.2340465 33.5931267,12.1137989 L20.041864,6.28500274 L20.041864,0.753612859 C20.041864,0.336876881 19.7040692,-2.1246621e-15 19.2882512,-2.1246621e-15 C18.8724331,-2.1246621e-15 18.5346383,0.336876881 18.5346383,0.753612859 L18.5346383,6.28500274 L4.98429359,12.1137989 C4.71442492,12.2248673 4.52166158,12.4984077 4.52166158,12.8086648 L4.52166158,29.3459234 L0.447011784,31.1560629 C0.0669926317,31.3249603 -0.10374061,31.7701518 0.0651567904,32.1510889 C0.233136271,32.5283543 0.676491948,32.7036772 1.05926486,32.5329439 L5.27894612,30.6585499 L18.989927,36.5552722 C19.1725932,36.6332955 19.3938121,36.6378851 19.5856575,36.5552722 L33.2966383,30.6585499 L37.5163196,32.5329439 C37.9009283,32.7036772 38.3433661,32.5274364 38.5113456,32.1510889 C38.680243,31.7701518 38.5085918,31.3249603 38.1285727,31.1560629 Z" id="Stroke-3" stroke="#E535AB" stroke-width="0.75"></path>
            </g>
        </g>
        <path d="M78.403,68 L78.403,61.761 L81.157,67.49 L83.384,67.49 L86.138,61.761 L86.138,68 L89.521,68 L89.521,54.74 L86.104,54.74 L82.262,63.121 L78.437,54.74 L75.02,54.74 L75.02,68 L78.403,68 Z M92.093428,61.37 C92.093428,65.161 95.306428,68.255 99.131428,68.255 C103.007428,68.255 106.169428,65.161 106.169428,61.37 C106.169428,57.579 103.007428,54.485 99.131428,54.485 C95.306428,54.485 92.093428,57.579 92.093428,61.37 Z M95.527428,61.37 C95.527428,59.364 97.142428,57.766 99.131428,57.766 C101.171428,57.766 102.735428,59.364 102.735428,61.37 C102.735428,63.376 101.171428,64.974 99.131428,64.974 C97.142428,64.974 95.527428,63.376 95.527428,61.37 Z M108.741856,68 L114.895856,68 C119.043856,68 121.168856,64.991 121.168856,61.37 C121.168856,57.766 119.043856,54.74 114.895856,54.74 L108.741856,54.74 L108.741856,68 Z M114.640856,58.038 C116.663856,58.038 117.734856,59.381 117.734856,61.37 C117.734856,63.359 116.663856,64.719 114.640856,64.719 L112.141856,64.719 L112.141856,58.038 L114.640856,58.038 Z M132.428284,54.74 L132.428284,61.999 C132.428284,63.92 131.493284,64.974 129.708284,64.974 C127.940284,64.974 127.022284,63.92 127.022284,61.999 L127.022284,54.74 L123.622284,54.74 L123.622284,62.203 C123.622284,65.62 125.730284,68.255 129.708284,68.255 C133.669284,68.255 135.811284,65.62 135.811284,62.203 L135.811284,54.74 L132.428284,54.74 Z M138.825712,68 L148.566712,68 L148.566712,64.719 L142.208712,64.719 L142.208712,54.74 L138.825712,54.74 L138.825712,68 Z M150.96914,68 L161.15214,68 L161.15214,64.719 L154.36914,64.719 L154.36914,63.019 L159.94514,63.019 L159.94514,59.942 L154.36914,59.942 L154.36914,58.038 L161.15214,58.038 L161.15214,54.74 L150.96914,54.74 L150.96914,68 Z M163.435568,64.022 L166.750568,64.022 L166.750568,64.107 C166.750568,64.617 167.447568,65.314 168.994568,65.314 C170.269568,65.314 170.677568,64.889 170.677568,64.498 C170.677568,63.937 170.014568,63.597 168.416568,63.053 L167.65063,62.7913183 C165.694921,62.0922353 163.537568,61.014 163.537568,58.599 C163.537568,56.066 165.696568,54.485 168.722568,54.485 C171.816568,54.485 174.145568,56.134 174.145568,58.769 L174.145568,58.956 L170.830568,58.956 L170.830568,58.837 C170.830568,58.191 170.167568,57.426 168.790568,57.426 C167.634568,57.426 167.175568,57.885 167.175568,58.327 C167.175568,58.8013 167.671288,59.06905 168.922981,59.514433 L169.866376,59.8467235 C171.717815,60.5158784 174.332568,61.6531714 174.332568,64.311 C174.332568,66.895 172.088568,68.255 169.062568,68.255 C165.883568,68.255 163.435568,66.776 163.435568,64.175 L163.435568,64.022 Z" id="Modules" fill="#050713" fill-rule="nonzero"></path>
        <path d="M78.565,41.821 L80.644,41.821 L80.644,42.063 C80.237,42.657 79.577,43.042 78.807,43.042 C77.509,43.042 76.475,42.008 76.475,40.71 C76.475,39.412 77.509,38.378 78.807,38.378 C79.555,38.378 80.215,38.719 80.644,39.258 L82.437,38.048 C81.612,36.97 80.281,36.255 78.807,36.255 C76.321,36.255 74.253,38.257 74.253,40.71 C74.253,43.163 76.321,45.165 78.807,45.165 C79.687,45.165 80.556,44.835 80.974,44.197 L80.974,45 L82.701,45 L82.701,39.995 L78.565,39.995 L78.565,41.821 Z M86.3105714,36.42 L86.3105714,45 L88.4995714,45 L88.4995714,42.701 L89.6215714,42.701 L91.2495714,45 L93.8785714,45 L92.0195714,42.404 C93.1745714,41.876 93.7135714,40.754 93.7135714,39.555 C93.7135714,37.85 92.7015714,36.42 90.5015714,36.42 L86.3105714,36.42 Z M90.3805714,38.422 C91.2605714,38.422 91.5905714,38.917 91.5905714,39.577 C91.5905714,40.171 91.2605714,40.71 90.3805714,40.71 L88.4995714,40.71 L88.4995714,38.422 L90.3805714,38.422 Z M99.8861429,36.42 L96.4101429,45 L98.8081429,45 L99.2811429,43.746 L102.658143,43.746 L103.131143,45 L105.529143,45 L102.064143,36.42 L99.8861429,36.42 Z M101.910143,41.755 L100.029143,41.755 L100.975143,39.236 L101.910143,41.755 Z M108.687714,45 L110.887714,45 L110.887714,43.053 L112.471714,43.053 C114.748714,43.053 115.837714,41.524 115.837714,39.709 C115.837714,37.982 114.748714,36.42 112.471714,36.42 L108.687714,36.42 L108.687714,45 Z M112.350714,38.422 C113.274714,38.422 113.615714,39.038 113.615714,39.72 C113.615714,40.479 113.274714,41.051 112.350714,41.051 L110.887714,41.051 L110.887714,38.422 L112.350714,38.422 Z M124.870286,36.42 L124.870286,39.753 L121.372286,39.753 L121.372286,36.42 L119.183286,36.42 L119.183286,45 L121.372286,45 L121.372286,41.81 L124.870286,41.81 L124.870286,45 L127.070286,45 L127.070286,36.42 L124.870286,36.42 Z M130.481857,40.71 C130.481857,42.91 132.153857,44.758 134.287857,45.099 C135.772857,45.594 136.773857,47.134 138.500857,47.134 C139.281857,47.134 140.282857,46.815 140.898857,45.968 L139.237857,44.626 C139.006857,44.978 138.610857,45.011 138.489857,45.011 C138.115857,45.011 137.763857,44.813 137.367857,44.538 C138.698857,43.757 139.589857,42.338 139.589857,40.71 C139.589857,38.257 137.543857,36.255 135.035857,36.255 C132.560857,36.255 130.481857,38.257 130.481857,40.71 Z M132.703857,40.71 C132.703857,39.412 133.748857,38.378 135.035857,38.378 C136.355857,38.378 137.367857,39.412 137.367857,40.71 C137.367857,42.008 136.355857,43.042 135.035857,43.042 C133.748857,43.042 132.703857,42.008 132.703857,40.71 Z M143.012429,45 L143.012429,36.42 L145.201429,36.42 L145.201429,42.877 L149.315429,42.877 L149.315429,45 L143.012429,45 Z" id="GraphQL" fill="#6D7A99" fill-rule="nonzero"></path>
    </g>
</svg>

<svg xmlns="http://www.w3.org/2000/svg" viewBox="0 0 215 105"><g fill="none" fill-rule="evenodd"><path fill="#FFF" d="M0 0h215v105H0z"/><path fill="#E535AB" d="M42.04 80.315c0 .253-.025.501-.063.744l-.014.091a4.866 4.866 0 0 1-4.785 4.027 4.868 4.868 0 0 1-4.602-3.306l-20.23-11.679a6.483 6.483 0 0 1-3.241-5.614V44.907c.749.253 1.548.397 2.383.397.75 0 1.472-.113 2.155-.32v19.594c0 .692.372 1.337.973 1.683l18.871 10.896a4.85 4.85 0 0 1 3.691-1.705c1.606 0 3.028.785 3.915 1.99l.048.064c.062.088.12.178.177.27l.065.107a4.807 4.807 0 0 1 .316.653c.024.06.045.12.067.181.027.077.053.155.076.233.023.075.04.15.058.225.017.07.035.14.049.212.019.095.03.19.044.285.007.058.018.113.024.17.014.156.023.313.023.473Zm24.88-42.466a4.844 4.844 0 0 1-1.67 3.657v23.072a6.482 6.482 0 0 1-3.24 5.614L44.63 80.226a7.409 7.409 0 0 0-1.496-4.377l16.607-9.588c.6-.346.972-.99.972-1.683v-22.06a4.867 4.867 0 0 1-3.518-4.67 4.826 4.826 0 0 1 .982-2.917c.112-.149.233-.293.362-.428l.017-.019c.267-.278.565-.522.89-.73l.104-.064c.129-.077.26-.15.396-.215.04-.019.08-.04.12-.057.17-.077.345-.148.525-.204a4.84 4.84 0 0 1 1.467-.228 4.867 4.867 0 0 1 4.862 4.863ZM9.105 42.083a4.864 4.864 0 0 1-2.48-4.234 4.868 4.868 0 0 1 4.863-4.863c.695 0 1.355.15 1.954.414l20.494-11.833a6.478 6.478 0 0 1 6.483 0l17.483 10.094a7.488 7.488 0 0 0-2.83 3.605L38.15 25.497a1.944 1.944 0 0 0-1.945 0L16.272 37.006c.049.274.078.554.078.843a4.866 4.866 0 0 1-3.188 4.559l-.043.016a5.153 5.153 0 0 1-.45.136c-.03.008-.06.017-.091.023-.14.032-.283.058-.427.078-.04.005-.078.013-.118.017-.179.02-.36.033-.545.033-.198 0-.393-.015-.586-.039-.051-.006-.102-.015-.153-.023a4.7 4.7 0 0 1-.437-.087l-.132-.034a4.875 4.875 0 0 1-1.075-.445Z"/><path fill="#E535AB" d="M38.347 67.024V51.637l12.506-5.38v14.725l-2.967-1.32a.754.754 0 0 0-.612 1.378l2.451 1.09-11.378 4.894Zm-10.052-6.979a.754.754 0 0 0-.994-.382l-2.969 1.319V46.257l12.508 5.38v15.387L25.46 62.13l2.453-1.09c.38-.17.55-.614.382-.995ZM36.84 40.23v1.87a.753.753 0 0 0 1.507 0v-1.87L49.7 45.113l-12.107 5.208-12.107-5.208L36.84 40.23Zm19.594 23.23-4.073-1.81V45.114a.757.757 0 0 0-.463-.694l-13.551-5.83v-5.53a.754.754 0 1 0-1.507 0v5.53l-13.55 5.83a.756.756 0 0 0-.463.694v16.538l-4.075 1.81a.754.754 0 0 0 .612 1.377l4.22-1.875 13.71 5.897a.766.766 0 0 0 .597 0l13.71-5.897 4.22 1.875a.754.754 0 1 0 .613-1.377Z"/><path stroke="#E535AB" stroke-width=".75" d="M38.347 67.024V51.637l12.506-5.38v14.725l-2.967-1.32a.754.754 0 0 0-.612 1.378l2.451 1.09-11.378 4.894Zm-10.052-6.979a.754.754 0 0 0-.994-.382l-2.969 1.319V46.257l12.508 5.38v15.387L25.46 62.13l2.453-1.09c.38-.17.55-.614.382-.995ZM36.84 40.23v1.87a.753.753 0 0 0 1.507 0v-1.87L49.7 45.113l-12.107 5.208-12.107-5.208L36.84 40.23Zm19.594 23.23-4.073-1.81V45.114a.757.757 0 0 0-.463-.694l-13.551-5.83v-5.53a.754.754 0 1 0-1.507 0v5.53l-13.55 5.83a.756.756 0 0 0-.463.694v16.538l-4.075 1.81a.754.754 0 0 0 .612 1.377l4.22-1.875 13.71 5.897a.766.766 0 0 0 .597 0l13.71-5.897 4.22 1.875a.754.754 0 1 0 .613-1.377Z"/><path fill="#050713" fill-rule="nonzero" d="M78.403 68v-6.239l2.754 5.729h2.227l2.754-5.729V68h3.383V54.74h-3.417l-3.842 8.381-3.825-8.381H75.02V68h3.383Zm13.69-6.63c0 3.791 3.213 6.885 7.038 6.885 3.876 0 7.038-3.094 7.038-6.885s-3.162-6.885-7.038-6.885c-3.825 0-7.038 3.094-7.038 6.885Zm3.434 0a3.595 3.595 0 0 1 3.604-3.604c2.04 0 3.604 1.598 3.604 3.604 0 2.006-1.564 3.604-3.604 3.604a3.595 3.595 0 0 1-3.604-3.604ZM108.742 68h6.154c4.148 0 6.273-3.009 6.273-6.63 0-3.604-2.125-6.63-6.273-6.63h-6.154V68Zm5.899-9.962c2.023 0 3.094 1.343 3.094 3.332 0 1.989-1.071 3.349-3.094 3.349h-2.5v-6.681h2.5Zm17.787-3.298v7.259c0 1.921-.935 2.975-2.72 2.975-1.768 0-2.686-1.054-2.686-2.975V54.74h-3.4v7.463c0 3.417 2.108 6.052 6.086 6.052 3.961 0 6.103-2.635 6.103-6.052V54.74h-3.383ZM138.826 68h9.74v-3.281h-6.357V54.74h-3.383V68Zm12.143 0h10.183v-3.281h-6.783v-1.7h5.576v-3.077h-5.576v-1.904h6.783V54.74H150.97V68Zm12.467-3.978h3.315v.085c0 .51.697 1.207 2.244 1.207 1.275 0 1.683-.425 1.683-.816 0-.561-.663-.901-2.261-1.445l-.766-.262c-1.956-.699-4.113-1.777-4.113-4.192 0-2.533 2.159-4.114 5.185-4.114 3.094 0 5.423 1.649 5.423 4.284v.187h-3.315v-.119c0-.646-.663-1.411-2.04-1.411-1.156 0-1.615.459-1.615.901 0 .474.495.742 1.747 1.187l.943.333c1.852.669 4.467 1.806 4.467 4.464 0 2.584-2.244 3.944-5.27 3.944-3.18 0-5.627-1.479-5.627-4.08v-.153Z"/><path fill="#6D7A99" fill-rule="nonzero" d="M78.565 41.821h2.079v.242a2.208 2.208 0 0 1-1.837.979 2.32 2.32 0 0 1-2.332-2.332 2.32 2.32 0 0 1 2.332-2.332c.748 0 1.408.341 1.837.88l1.793-1.21a4.591 4.591 0 0 0-3.63-1.793c-2.486 0-4.554 2.002-4.554 4.455 0 2.453 2.068 4.455 4.554 4.455.88 0 1.749-.33 2.167-.968V45h1.727v-5.005h-4.136v1.826Zm7.746-5.401V45H88.5v-2.299h1.122L91.25 45h2.629l-1.86-2.596c1.156-.528 1.695-1.65 1.695-2.849 0-1.705-1.012-3.135-3.212-3.135H86.31Zm4.07 2.002c.88 0 1.21.495 1.21 1.155 0 .594-.33 1.133-1.21 1.133H88.5v-2.288h1.88Zm9.505-2.002L96.41 45h2.398l.473-1.254h3.377l.473 1.254h2.398l-3.465-8.58h-2.178Zm2.024 5.335h-1.88l.945-2.519.935 2.519ZM108.688 45h2.2v-1.947h1.584c2.277 0 3.366-1.529 3.366-3.344 0-1.727-1.09-3.289-3.366-3.289h-3.784V45Zm3.663-6.578c.924 0 1.265.616 1.265 1.298 0 .759-.341 1.331-1.265 1.331h-1.463v-2.629h1.463Zm12.52-2.002v3.333h-3.499V36.42h-2.189V45h2.19v-3.19h3.497V45h2.2v-8.58h-2.2Zm5.61 4.29c0 2.2 1.673 4.048 3.807 4.389 1.485.495 2.486 2.035 4.213 2.035.78 0 1.782-.319 2.398-1.166l-1.661-1.342c-.231.352-.627.385-.748.385-.374 0-.726-.198-1.122-.473 1.33-.781 2.222-2.2 2.222-3.828 0-2.453-2.046-4.455-4.554-4.455-2.475 0-4.554 2.002-4.554 4.455Zm2.223 0a2.326 2.326 0 0 1 2.332-2.332 2.306 2.306 0 0 1 2.332 2.332 2.306 2.306 0 0 1-2.332 2.332 2.326 2.326 0 0 1-2.332-2.332ZM143.012 45v-8.58h2.19v6.457h4.113V45h-6.303Z"/></g></svg>
